X:1
T:Title
%%score { 1 | ( 2 3 ) }
L:1/8
M:4/4
K:Eb
V:1 treble nm="Grand Piano"
V:2 bass 
V:3 bass 
V:1
 z4 z2[Q:1/4=100] [EG]>[FA] | [GB]2 [GB]2 [Ac]2 [GB]2 | [GB]2 G4 E2 | [DF]2 [DF]2 [EG]2 [DF]>F | %4
[M:3/4] E6 |[M:1/4] G>[FA] |[M:4/4] [GB]2 [GB][GB] [Ac]2 [GB]2 | [GB]2 G4 G2 | F2 B>c d2 c2 | %9
[M:3/4] [DB]6 |[M:1/4] [EB]>[EB] |[M:4/4] [Ge]2 [Ge]>[Ge] [Ge]2 [GB]>[GB] | c2 c4 c2 | %13
 [GB]2 G2 E2 G2 |[M:3/4] [DF]6 |[M:1/4] [EG]>[FA] |[M:4/4] [GB]2 [GB]2 [Ac]2 [GB]2 | [GB]2 G4 E2 | %18
 [DF]2 [DF]2 [EG]2 [DF]>F |[M:7/4] E6 z2 z2 z4 |] %20
V:2
 z4 z2 [E,B,]>[E,B,] | [E,E]2 [E,E]2 [E,E]2 [E,E]2 | [E,E]2 [E,B,E]4 [E,G,]2 | %3
 [B,,B,]2 [B,,B,]2 [B,,B,]2 z z/ D/ |[M:3/4] [E,G,]6 |[M:1/4] [E,B,E]>[E,B,] | %6
[M:4/4] [E,E]2 [E,E][E,E] [E,E]2 [E,E]2 | [E,E]2 [E,B,E]4 [E,B,E]2 | %8
 [F,B,D]2 [F,B,D]>[F,B,E] [F,B,F]2 [F,=A,E]2 |[M:3/4] [B,,B,]6 |[M:1/4] [E,G,]>[E,G,] | %11
[M:4/4] [E,B,]2 [E,B,]>[E,B,] [E,B,]2 [E,E]>[E,E] | [A,EA]2 [A,EA]4 [A,EA]2 | %13
 [E,E]2 [E,B,E]2 [G,B,]2 [E,B,E]2 |[M:3/4] [B,,B,]6 |[M:1/4] [E,B,]>[E,B,] | %16
[M:4/4] [E,E]2 [E,E]2 [E,E]2 [E,E]2 | [E,E]2 [E,B,E]4 [E,G,]2 | %18
 [B,,B,]2 [B,,B,]2 [B,,B,]2 z z/ D/ |[M:7/4] [E,G,]6 z2 z2 z4 |] %20
V:3
 x8 | x8 | x8 | z4 z2 [B,,A,]2 |[M:3/4] x6 |[M:1/4] x2 |[M:4/4] x8 | x8 | x8 |[M:3/4] x6 | %10
[M:1/4] x2 |[M:4/4] x8 | x8 | x8 |[M:3/4] x6 |[M:1/4] x2 |[M:4/4] x8 | x8 | z4 z2 [B,,A,]2 | %19
[M:7/4] x14 |] %20

